!!!SOCIAL_FUNCTION:	war songs
!!!PDT:	1929
!!!OTL: No_146_It_Is_the_Woodpecker.krn
!!!REG: Southwest
!!!LANG: Non-Tone
!!!LING_GROUP: Uto-Aztecan
**kern
*staff1
*clefF4
*k[b-e-a-d-]
*M2/4
4F\
=1
8.c\L
16B-\Jk
8c\L
8B-\J
=2||
*M3/4
8.A-\L
16A-\Jk
8A-\L
8G\J
4G\
=3||
*M2/4
4.G\
8F\
=4
4F\
4G\
=5
8.B-\L
16G\Jk
12B-\L
12A-\
12G\J
=6||
*M3/4
8.F\L
16F\Jk
8F\L
8F\J
4F\
=7
2.F\
=8||
*M2/4
4F\
8F\L
8Dn\J
=9
8.G\L
16G\Jk
8.G\L
16G\Jk
=10||
*M3/8
4F\
8Dn\
=11||
*M2/4
12F\L
12F\
12F\J
4F\
=12||
*M3/4
2.F\
=13||
*M2/4
4E-\
4E-\
=14
4F\
8E-\L
8E-\J
=15
8F\L
8F\J
8F\L
8E-\J
=16
8F\L
8F\J
4F\
=17
4F\
8.E-\L
16F\Jk
=18
4F\
8E-\L
8E-\J
=19
8F\L
8F\J
4F\
=20||
*M3/4
[2F\
4F\]
==:|!
*-
